X: 32428
T: Piper's Turn, The
R: jig
M: 6/8
K: Gmajor
|:~B2 A BDD|BDD FGA|~B2 A BDD|FGA ABc|
~B2 A BDD|BDD FGA|Bdd dcB|cDD ABc:|cBA|
dcB dcB|dcB ABc|dcB dcB|cDD ABc|
d~2B dBB|dBB ABc|dgg fed|cDD cBA|
|:G2 g gfg|dgg fga bag|age fAA|cBA|
G2 g gfg|dgg fga bag|age fAA|cBA:|

